svgs/sharp-regular/lock-keyhole.svg

<svg xmlns="http://www.w3.org/2000/svg" viewBox="0 0 448 512"><!--! Font Awesome Pro 6.4.0 by @fontawesome - https://fontawesome.com License - https://fontawesome.com/license (Commercial License) Copyright 2023 Fonticons, Inc. --><path d="M224 48c44.2 0 80 35.8 80 80v64H144V128c0-44.2 35.8-80 80-80zM96 128v64H48 0v48V464v48H48 400h48V464 240 192H400 352V128C352 57.3 294.7 0 224 0S96 57.3 96 128zM48 240H400V464H48V240zm200 80V296H200v24 64 24h48V384 320z"/></svg>

<svg xmlns="http://www.w3.org/2000/svg" viewBox="0 0 448 512"><!--! Font Awesome Pro 6.6.0 by @fontawesome - https://fontawesome.com License - https://fontawesome.com/license (Commercial License) Copyright 2024 Fonticons, Inc. --><path d="M224 48c44.2 0 80 35.8 80 80l0 64-160 0 0-64c0-44.2 35.8-80 80-80zM96 128l0 64-48 0L0 192l0 48L0 464l0 48 48 0 352 0 48 0 0-48 0-224 0-48-48 0-48 0 0-64C352 57.3 294.7 0 224 0S96 57.3 96 128zM48 240l352 0 0 224L48 464l0-224zm200 80l0-24-48 0 0 24 0 64 0 24 48 0 0-24 0-64z"/></svg>
